X:2045
T:Brando 'd Gamondi (Andrea Sibilio)
C:Tre Martelli: Omi e Paiz 1c
M:6/8
L:1/8
K:G
G2A|BcB AGF|G2G B2c|ded cBA|B2B BcB|\
A2d e2c|A3 d2c|BcB ABA|G3:|
|:G2A|BcB AGF|G2G B2B|cGc edc|BdB GAB|\
AFD DEF|G2G ecG|dBG ABA|G3:|
K:C
|:GAB|cde def|ged cef|g2_g f2e|dBA GAB|\
cde def|ged cef|g_gf e2d|c3:|


